public/static/images/page/tools/ahrefs.svg

<svg width="74" height="21" viewBox="0 0 74 21" fill="none" xmlns="http://www.w3.org/2000/svg">
<path d="M1.47854 8.12755H8.56432V10.1189L5.89972 10.3235C1.59545 10.646 0.249023 11.7849 0.249023 14.9795V15.6235C0.249023 17.9617 1.8887 19.3715 4.40619 19.3715C6.39757 19.3715 7.5394 18.9028 8.94526 17.4678H9.17908V18.9905H12.019V5.02356H1.47854V8.12755ZM8.56432 14.8626C7.68749 15.7394 6.36834 16.324 5.28497 16.324C4.11586 16.324 3.61606 15.8846 3.64529 14.9181C3.67452 13.5717 4.17236 13.2492 6.4268 13.0446L8.56432 12.84V14.8626Z" fill="#FF8800"/>
<path fill-rule="evenodd" clip-rule="evenodd" d="M17.9908 5.02452H23.4661V7.86449H26.4522V18.9905H22.9683V8.15774H17.9908V18.9905H14.5059V0.837158H17.9908V5.02452ZM68.9399 10.646L66.8316 10.4404C65.6624 10.3235 65.3702 10.0312 65.3702 9.09401C65.3702 8.03986 65.7803 7.77584 67.4161 7.77584C68.8775 7.77584 69.2896 8.01064 69.4952 9.00633H72.7746C72.6869 5.66852 71.662 4.81702 67.5915 4.81702C63.1411 4.81702 62.0284 5.66657 62.0284 9.09206C62.0284 12.2253 62.8478 13.0739 66.1574 13.3963L67.8847 13.5717C69.4367 13.7178 69.8167 14.0111 69.8167 14.9483C69.8167 16.0902 69.3481 16.3824 67.4453 16.3824C65.7764 16.3824 65.337 16.1194 65.2494 15.036H61.9369C62.0245 18.4907 63.0787 19.3695 67.2953 19.3695C71.9796 19.3695 73.1506 18.4323 73.1506 14.6259C73.1555 11.7878 72.3069 10.9675 68.9399 10.646ZM51.0023 10.9091C51.0023 6.40019 49.4513 4.81897 44.9999 4.81897C40.6079 4.81897 38.8806 6.86491 38.8806 11.9632C38.8806 17.5272 40.4033 19.3676 45.3224 19.3676C48.8657 19.3676 50.3583 18.2842 50.8561 15.2387H47.4891C47.1082 16.1798 46.699 16.3844 45.2688 16.3844C43.102 16.3844 42.5457 15.7696 42.4288 13.1635H50.7733C50.913 12.4198 50.9896 11.6656 51.0023 10.9091ZM42.4532 10.4112C42.4824 8.45003 43.2725 7.71836 45.147 7.71836C46.9328 7.71836 47.6645 8.45003 47.7239 10.4112H42.4532ZM53.0306 5.63831V18.9905H56.5155V8.01062H60.7049V5.02355H56.5155V4.64359C56.5438 3.82326 56.7494 3.58944 57.4226 3.58944H61.229V0.837158H57.1284C54.3478 0.837158 53.0306 1.68574 53.0306 5.63831ZM32.4914 18.9905H29.0074V5.02454H37.6744V8.30389H32.4914V18.9905Z" fill="white"/>
</svg>

<svg width="74" height="21" fill="none" xmlns="http://www.w3.org/2000/svg"><path d="M1.479 8.128h7.085v1.99l-2.664.205C1.595 10.646.249 11.785.249 14.98v.645c0 2.338 1.64 3.748 4.157 3.748 1.992 0 3.133-.47 4.54-1.904h.233v1.523h2.84V5.024H1.479v3.104Zm7.085 6.735c-.877.876-2.196 1.461-3.279 1.461-1.17 0-1.669-.44-1.64-1.406.03-1.346.527-1.669 2.782-1.873l2.137-.205v2.023Z" fill="#F80"/><path fill-rule="evenodd" clip-rule="evenodd" d="M17.99 5.025h5.476v2.84h2.986V18.99h-3.484V8.158h-4.977V18.99h-3.485V.837h3.485v4.188Zm50.95 5.621-2.108-.206c-1.17-.117-1.462-.409-1.462-1.346 0-1.054.41-1.318 2.046-1.318 1.462 0 1.874.235 2.08 1.23h3.279c-.088-3.337-1.113-4.189-5.184-4.189-4.45 0-5.563.85-5.563 4.275 0 3.133.82 3.982 4.13 4.304l1.727.176c1.552.146 1.932.44 1.932 1.376 0 1.142-.469 1.434-2.372 1.434-1.669 0-2.108-.263-2.196-1.346h-3.312c.088 3.455 1.142 4.333 5.358 4.333 4.685 0 5.856-.937 5.856-4.743.005-2.838-.844-3.659-4.211-3.98Zm-17.938.263c0-4.509-1.55-6.09-6.002-6.09-4.392 0-6.12 2.046-6.12 7.144 0 5.564 1.523 7.405 6.442 7.405 3.544 0 5.036-1.084 5.534-4.13H47.49c-.38.942-.79 1.146-2.22 1.146-2.167 0-2.723-.614-2.84-3.22h8.344c.14-.744.217-1.498.23-2.255Zm-8.549-.498c.03-1.961.82-2.693 2.694-2.693 1.786 0 2.517.732 2.577 2.693h-5.27Zm10.578-4.773V18.99h3.485V8.01h4.189V5.025h-4.19v-.38c.029-.82.234-1.055.908-1.055h3.806V.837h-4.1c-2.781 0-4.098.849-4.098 4.801ZM32.49 18.99h-3.484V5.026h8.667v3.279h-5.183V18.99Z" fill="#fff"/></svg>
